symbols/web/grid_4x4/materialsymbolsoutlined/grid_4x4_wght700grad200_48px.svg

<svg xmlns="http://www.w3.org/2000/svg" height="48" width="48"><path d="M9 45.75V39H2.3v-4.55H9V26.3H2.3v-4.55H9v-8.2H2.3v-4.6H9V2.2h4.55v6.75h8.2V2.2h4.55v6.75h8.2V2.2h4.6v6.75h6.7v4.6h-6.7v8.2h6.7v4.55h-6.7v8.15h6.7V39h-6.7v6.75h-4.6V39h-8.2v6.75h-4.55V39h-8.2v6.75Zm4.55-11.3h8.2v-8.2h-8.2Zm12.75 0h8.2v-8.2h-8.2Zm-12.75-12.7h8.2v-8.2h-8.2Zm12.75 0h8.2v-8.2h-8.2Z"/></svg>

<svg xmlns="http://www.w3.org/2000/svg" height="48" width="48"><path d="M9 45.75V39H2.3V34.45H9V26.3H2.3V21.75H9V13.55H2.3V8.95H9V2.2H13.55V8.95H21.75V2.2H26.3V8.95H34.5V2.2H39.1V8.95H45.8V13.55H39.1V21.75H45.8V26.3H39.1V34.45H45.8V39H39.1V45.75H34.5V39H26.3V45.75H21.75V39H13.55V45.75ZM13.55 21.75H21.75V13.55H13.55ZM13.55 34.45H21.75V26.25H13.55ZM26.3 34.45H34.5V26.25H26.3ZM26.3 21.75H34.5V13.55H26.3Z"/></svg>
